packages/ckeditor5-icons/theme/icons/table-layout.svg

<svg width="20" height="20" viewBox="0 0 20 20" xmlns="http://www.w3.org/2000/svg">
<path d="M1.5 4.12143C1.5 2.9498 2.42568 2 3.56757 2H16.4324C17.5743 2 18.5 2.9498 18.5 4.12143V16.3786C18.5 17.5502 17.5743 18.5 16.4324 18.5H3.56757C2.42568 18.5 1.5 17.5502 1.5 16.3786V4.12143ZM3.56757 3.41429C3.18694 3.41429 2.87838 3.73088 2.87838 4.12143V6.37972H17.1216V4.12143C17.1216 3.73088 16.8131 3.41429 16.4324 3.41429H3.56757ZM17.1216 7.79401H12.1537V11.7327H17.1216V7.79401ZM17.1216 13.147H12.1537V17.0857H16.4324C16.8131 17.0857 17.1216 16.7691 17.1216 16.3786V13.147ZM10.7753 17.0857V7.79401H2.87838V16.3786C2.87838 16.7691 3.18694 17.0857 3.56757 17.0857H10.7753Z"/>
</svg>

<svg viewBox="0 0 20 20" xmlns="http://www.w3.org/2000/svg"><path d="M1.5 4.121C1.5 2.95 2.426 2 3.568 2h12.864c1.142 0 2.068.95 2.068 2.121V16.38c0 1.171-.926 2.121-2.068 2.121H3.568c-1.142 0-2.068-.95-2.068-2.121V4.12Zm2.068-.707c-.381 0-.69.317-.69.707V6.38h14.244V4.12a.698.698 0 0 0-.69-.707H3.568Zm13.554 4.38h-4.968v3.939h4.968V7.794Zm0 5.353h-4.968v3.939h4.278c.381 0 .69-.317.69-.707v-3.232Zm-6.347 3.939V7.794H2.878v8.585c0 .39.309.707.69.707h7.207Z"/></svg>
